Origami/32x32/apps/davmail.svg

<svg width="32" height="32" version="1" xmlns="http://www.w3.org/2000/svg">
 <path d="m16 3c-7.756 0-14 6.244-14 14s6.244 14 14 14 14-6.244 14-14-6.244-14-14-14z" style="opacity:.2"/>
 <path d="m16 2c-7.756 0-14 6.244-14 14s6.244 14 14 14 14-6.244 14-14-6.244-14-14-14z" style="fill:#efbd2f"/>
 <path d="m14 8-2 7h2.6l-2.1 5h2.1l-2.1 7 7-8h-2.45l2.95-5h-3.5l3-6z" style="opacity:.2"/>
 <path d="m14 7-2 7h2.6l-2.1 5h2.1l-2.1 7 7-8h-2.45l2.95-5h-3.5l3-6z" style="fill:#ffffff"/>
 <path d="M 16 2 C 8.244 2 2 8.244 2 16 C 2 16.168842 2.0195214 16.33264 2.0253906 16.5 C 2.2891326 8.9794325 8.4128418 3 16 3 C 23.587158 3 29.710867 8.9794325 29.974609 16.5 C 29.980479 16.33264 30 16.168842 30 16 C 30 8.244 23.756 2 16 2 z" style="fill:#ffffff;opacity:.2"/>
</svg>

<svg xmlns="http://www.w3.org/2000/svg" width="32" height="32" version="1">
 <path style="opacity:0.2" d="M 16,3 C 8.244,3 2,9.244 2,17 2,24.756 8.244,31 16,31 23.756,31 30,24.756 30,17 30,9.244 23.756,3 16,3 Z"/>
 <path style="fill:#efbd2f" d="M 16,2 C 8.244,2 2,8.244 2,16 2,23.756 8.244,30 16,30 23.756,30 30,23.756 30,16 30,8.244 23.756,2 16,2 Z"/>
 <path style="opacity:0.2" d="m 14,8 -2,7 2.6,0 -2.1,5 2.1,0 -2.1,7 7,-8 -2.45,0 2.95,-5 -3.5,0 3,-6 z"/>
 <path style="fill:#ffffff" d="m 14,7 -2,7 2.6,0 -2.1,5 2.1,0 -2.1,7 7,-8 -2.45,0 2.95,-5 -3.5,0 3,-6 z"/>
 <path style="fill:#ffffff;opacity:0.2" d="M 16 2 C 8.244 2 2 8.244 2 16 C 2 16.168842 2.0195214 16.33264 2.0253906 16.5 C 2.2891326 8.9794325 8.4128418 3 16 3 C 23.587158 3 29.710867 8.9794325 29.974609 16.5 C 29.980479 16.33264 30 16.168842 30 16 C 30 8.244 23.756 2 16 2 z"/>
</svg>
